apps/documenteditor/main/resources/img/toolbar/2.5x/big/btn-dark-mode.svg

<svg width="28" height="28" viewBox="0 0 28 28" fill="none" xmlns="http://www.w3.org/2000/svg">
<path fill-rule="evenodd" clip-rule="evenodd" d="M5.99993 4H21.9999V9.12947L16.9478 12H7.99993V13H15.1878L11.6678 15H7.99993V16H9.90781L5.99993 18.2204V4ZM22.9999 4V8.56129L24.7529 7.56527L25.2469 8.43473L3.24694 20.9347L2.75293 20.0653L4.99993 18.7886V4C4.99993 3.44772 5.44765 3 5.99993 3H21.9999C22.5522 3 22.9999 3.44772 22.9999 4ZM22.9999 24V11.1364L16.1999 15H19.9999V16H14.4399L10.9199 18H19.9999V19H9.15991L4.99993 21.3636V24C4.99993 24.5522 5.44765 25 5.99993 25H21.9999C22.5522 25 22.9999 24.5522 22.9999 24ZM7.99993 22H19.9999V21H7.99993V22ZM7.99993 7H19.9999V6H7.99993V7ZM19.9999 10H7.99993V9H19.9999V10Z" fill="black"/>
</svg>

<svg width="28" height="28" fill="none" xmlns="http://www.w3.org/2000/svg"><path d="M8 7h12V6H8v1zM20 10H8V9h12v1z" fill="#000"/><path fill-rule="evenodd" clip-rule="evenodd" d="M5 18.789V4a1 1 0 0 1 1-1h16a1 1 0 0 1 1 1v4.561l1.753-.996.494.87-22 12.5-.494-.87L5 18.79zM6 4h16v5.13L16.948 12H8v1h7.188l-3.52 2H8v1h1.908L6 18.22V4zM23 24V11.136L16.2 15H20v1h-5.56l-3.52 2H20v1H9.16L5 21.364V24a1 1 0 0 0 1 1h16a1 1 0 0 0 1-1zM8 22h12v-1H8v1z" fill="#000"/></svg>
